X:1
T:Polonaise
T:POLONAISE
T:F. Chopin. Op. 53.
T:A Monsieur Augste Léo
%%score { ( 1 4 ) | ( 2 3 5 ) }
L:1/8
Q:1/4=120
M:3/4
K:Ab
V:1 treble nm="Piano" snm="Pno."
V:4 treble 
V:2 bass 
V:3 bass 
V:5 bass 
V:1
"^Maestoso" [E,E]2 z x x2 | x4!>(! ([_FA]2 | .[EG])!>)! z x4 | x6 | [_C_F]2 z x x2 | %5
 .[_C_F] z x z!>(! ([DBd]2 | .[A_c])!>)! z x4 | x6 | %8
 .[CF]2!p! z!<(! ([=A,=D]/[B,E]/ [=B,=E]/[CF]/[_DG]/[=D^G]/!<)! | %9
 .[E=A]) z"^-""^-""^-""^-""^-""^cresc." .[CF] z!>(! ([CFc]2!>)! | %10
 .[=DFB]) z z!<(! ([=B,=E]/[CF]/ [^C^F]/[=DG]/[^D^G]/[E=A]/!<)! | %11
 .[FB]) z .[=DF] z!>(! ([FBf]2!>)! |!f! .[_DEGBe]) z [df]/A/G/e/ [df]/A/G/e/ | %13
 [Bf]/G/E/e/ [cf]/G/E/e/ [df]/B/G/e/ |!<(! [df]/B/G/e/[Q:1/4=115] [df]/B/G/e/ [df]/B/G/e/ | %15
[Q:1/4=100] [df]/B/G/e/[Q:1/4=95] [df]/B/G/e/[Q:1/4=85] [df]/B/G/e/!<)! | %16
!f!!>(! ([df]>!>)![ce] [ce]2) z ([Ac]/[Bd]/ |!>(! f/e/!>)!{/f}e/=d/ [ce]2) z ([Ac]/[_B_d]/ | %18
!>(! f/e/!>)!{/f}e/=d/!>(! f/e/!>)!{/f}e/=d/ [ce]) (!arpeggio![E=B_g] | %19
 !arpeggio![E=Af][FAc][FBd]) (3(_G/_G,/G/[F,F]D) |!>(!{/_G} ([e_g]>[df]!>)! [df]2) z ([Bd]/[ce]/ | %21
!>(! _g/f/{/g}f/!>)!=e/ [df]2) z ([=Gd=g]/[Aa]/ | %22
!>(! [cc']/[eg]/[cc']/)z/4([Bb]/4 [Bb]/[ce]/[Bb]/)z/4([Aa]/4 [Aa]/[Be]/[Aa]/)z/4([Gg]/4!>)! | %23
!<(! [Gg]/[B=d]/[Gg]/)z/4([Ff]/4 [Ff]/[GB]/[Ff]/)z/4([Ee]/4!<)!!>(! [_D_d]/[FA]/[Dd]/)z/4!>)![Cc]/4 | %24
!<(! (F2 TGF/G/ TAG/A/!<)! | =A/B/c/d/ .[C_Ac]) ([Af]/>[Ae]/ [Ae]/) (A/a/z/4g/4 | %26
 [Ff]2) (G/Pg/[Ff]/[Gg]/) (A/Pa/[Gg]/[Aa]/) | %27
 ([=Ae=a]/[Bb]/[cgc']/[dd']/ .[c_ac'])!>(! ([faf']/z/4!>)![eae']/4 .[eae'])!>(!{/[ee']} ([d=ad']/>!>)![cc']/ | %28
 .[Bb]) ([B,_GB]/>[Cc]/ [DFd][DFd]/>[Cc]/ [B,FB][EA]/>G/ | .F) x!<(! x4!<)! | %30
 .b!<(!{/c'} ([Bgb]/[^f=a]/ [dgb][cgc'][_Ac_a][EAe] | [FAf][Aca][DFBd][FAdf][B,EAB][DEGBd])!<)! | %32
!ff!!>(! ([fd'f']>!>)![ec'e'] [ec'e']){/E} (!trill(!!>!TE{=DE}A) ([cac']/[dbd']/ | %33
!>(! [fd'f']/)z/4([ec'e']/4!>)![ec'e']/[=d=b=d']/ [ec'e']){/E} (!trill(!!>!TE{=DE}A) [cac']/[_d_b_d']/ | %34
!>(! [fd'f']/[e-c'-e']/{/f'}[ec'e']/!>)![=d=d']/!>(! ([f_d'f']/[e-c'-e']/{/f'}[ec'e']/!>)![d=b=d']/ [cec'e'])(!arpeggio![eb_g'] | %35
 !arpeggio![e=af']!arpeggio![cefc']!arpeggio![Bfd'])!>(! (3(_g/_G/g/!>)![Ff][Dd]) | %36
!>(! ([_ge'_g']>!>)![fd'f'] [fd'f'])!>(!{/F} (!trill(!TF{=EF}!>)!B) [dbd']/[ec'e']/ | %37
!>(! [_ge'_g']/z/4([fd'f']/4!>)![fd'f']/[=ec'=e']/ [fd'f'])!>(!{/F} (!trill(!TF{=EF}!>)!B)!8va(! ([=gd'=g']/[aa']/ | %38
!f!!>(! [c'c'']/[e'g']/[c'c'']/)z/4([bb']/4 [bb']/[c'e']/[bb']/)z/4([aa']/4 [aa']/[be']/[aa']/)z/4([gg']/4!>)! | %39
!<(! [gg']/[b=d']/[gg']/)z/4([ff']/4 [ff']/[gb]/[ff']/)z/4([ee']/4!8va)!!<)!!>(! [d_d']/[fa]/[dd']/)z/4[cc']/4!>)! | %40
!<(! (F2 TGF/G/ TAG/A/!<)! | =A/B/c/d/ .[C_Ac])!>(! ([Af]/>[Ae]/!>)! [Ae]/) (A/a/z/4g/4 | %42
 [Ff]2) (G/Pg/[Ff]/[Gg]/) (A/Pa/[Gg]/[Aa]/) | %43
 ([=Ae=a]/[Bb]/[cgc']/[dd']/ .[c_ac'])!>(! ([faf']/z/4!>)![eae']/4 [eae'])!>(!{/[ee']} ([d=ad']/>[cc']/!>)! | %44
 .[Bb]) ([B_gb]/>[cc']/ [dfd'])([dfd']/>[cc']/ [Bfb])[ABea]/>[!courtesy!_Gg]/ | %45
 [Fdf] x!<(![I:staff +1] (29:4:29=A,,B,,C,D,E,F,G,[I:staff -1]=A,B,CDEFG=ABcdefg=a!8va(!bc'd'e'f'g'=a'!<)! | %46
 .b'{/c''} ([d'g'b']/[c'^f'=a']/ [d'g'b'])([c'g'c''][ac'_a']!8va)![eae'] | %47
 .[ff']) ([G,DE-]!>(!{/[G,D]} [DEB]2 [CA])!>)! z | %48
 .[cc']!p!!<(! [Cc]/z/4([Cc]/4 [Dc])[Cc]/z/4([Cc]/4 [Ec])[Cc]/z/4([Cc]/4 | %49
 [Fc])[Cc]/z/4([=Ec]/4 [Gc])[Cc]/z/4([Fc]/4 [Ac])[Cc]/z/4[^Fc]/4!<)! | %50
 .[=EGc=e] (!>![ec'=e']2 [=d=b=d']/[ec'e']/ [fd'f']) ([ec'e']/>[dd']/ | %51
 .[=ec'=e'])!<(! (C/4=E/4G/4=B/4 c/4e/4g/4=b/4!8va(! c'/4e'/4g'/4=b'/4)!<)!!f!!>(! [d'd'']!>)!!>(![!courtesy!=d'=d'']!>)! | %52
 .[e'e'']!8va)!!p!!<(! [Ee]/z/4([Ee]/4 [_Fe])[Ee]/z/4([Ee]/4 [_Ge])[Ee]/z/4([Ee]/4 | %53
 [Ae])[Ee]/z/4([Ge]/4 [Be])[Ee]/z/4([Ae]/4 [_ce])[Ee]/z/4[=Ae]/4!<)! | %54
 .[GBeg]!8va(!!>(! (!>![ge'g']2!>)! [^fd'^f']/[ge'g']/ [a=d'a']!>(! ([gd'g']/>)[=f=f']/!>)! | %55
 .[ge'g'])!8va)!!>(! (g/>f/!>)! e)!>(! (G/>F/!>)! E) z |!f!"^sostenuto" F4 B,2 | %57
 C3 (C/>D/) (!trill(!TD2 | C3) (C/>D/) !trill(!TD2 |!<(! (C=D/=E/ FG B/A/G/F/)!<)! | %60
[Q:1/4=110] (2:1:2(F/F/ (f4) [B,B]2[Q:1/4=85] | [Cc]3) (c/>d/{/D} !trill(!Td2 | %62
 [Cc]3) c/>d/{/D} !trill(!Td2 | %63
 !trill(!Tx3/2x/4x/4 !trill(!Tx2 x/x/4x/4(7:4:7x/4x/4x/4x/4x/4x/4x/4 | %64
!ff!!>(! ([fd'f']>!>)![ec'e'] [ec'e'])!>(!{/E} (!trill(!TE{=DE}!>)!A) ([cac']/[dbd']/ | %65
!>(! [fd'f']/)z/4([ec'e']/4!>)![ec'e']/[=d=b=d']/ [ec'e'])!>(!{/E} (!trill(!TE{=DE}!>)!A) [cac']/[_d_b_d']/ | %66
!>(! [fd'f']/[e-c'-e']/{/f'}[ec'e']/!>)![=d=d']/!>(! ([f_d'f']/[e-c'-e']/{/f'}[ec'e']/!>)![d=b=d']/ [cec'e'])(!arpeggio![eb_g'] | %67
 !arpeggio![e=af']!arpeggio![cefc']!arpeggio![Bfd'])!>(! (3(_g/_G/g/!>)![Ff][Dd]) | %68
!>(! ([_ge'_g']>!>)![fd'f'] [fd'f'])!>(!{/F} (!trill(!TF{=EF}!>)!B) [dbd']/[ec'e']/ | %69
!>(! [_ge'_g']/z/4([fd'f']/4!>)![fd'f']/[=ec'=e']/ [fd'f'])!>(!{/F} (!trill(!TF{=EF}!>)!B)!8va(! ([=gd'=g']/[aa']/ | %70
!f!!>(! [c'c'']/[e'g']/[c'c'']/)z/4([bb']/4 [bb']/[c'e']/[bb']/)z/4([aa']/4 [aa']/[be']/[aa']/)z/4([gg']/4!>)! | %71
!p!!<(! [gg']/[b=d']/[gg']/)z/4([ff']/4 [ff']/[gb]/[ff']/)z/4!f!([ee']/4!8va)!!<)!!f!!>(! [d_d']/[fa]/[dd']/)z/4[cc']/4!>)! | %72
!<(! (F2 TGF/G/ TAG/A/!<)! | =A/B/c/d/ .[C_Ac])!>(! ([Af]/>[Ae]/!>)! [Ae]/) (A/a/z/4g/4 | %74
 [Ff]2) (G/Pg/[Ff]/[Gg]/) (A/Pa/[Gg]/[Aa]/) | %75
 ([=Ae=a]/[Bb]/[cgc']/[dd']/ .[c_ac'])!>(! ([faf']/z/4!>)![eae']/4 [eae'])!>(!{/[ee']} ([d=ad']/>[cc']/!>)! | %76
 .[Bb]) ([B_gb]/>[cc']/ [dfd'])([dfd']/>[cc']/ [Bfb])[ABea]/>[_Gg]/ | %77
 [Fdf] x!<(![I:staff +1] (29:4:29=A,,B,,C,D,E,F,G,[I:staff -1]=A,B,CDEFG=ABcdefg=a!8va(!bc'd'e'f'g'=a'!<)! | %78
 .b'{/c''} ([d'g'b']/[c'^f'=a']/ [d'g'b'])([c'g'c''][ac'_a']!8va)![eae'] | %79
 .[ff']) ([G,DE-]!>(!{/[G,D]} [DEB]2 [CA])!>)! z || %80
[K:E]!ff! !arpeggio!!>![EG]2 !arpeggio!!>![EG]2 !arpeggio!!>![EG]2 | %81
 !arpeggio!!>![EG]2 !arpeggio!!>![EG]2 !arpeggio!!>![EG]2 |!ff! [G,B,EG]/!pp! x/ x x4 | x6 | x6 | %85
 x2 G2 F2 |[I:staff +1] [G,B,]>[I:staff -1]E G x/ (D/ E[EG] | %87
 [B,GB])(.[CGc]/.[DGd]/ .[EGe].[B,GB] !>![GBg]2 | [FAB]3 .[AB]/.[AB]/ .[AB].[AB] | %89
!<(! [GB]>[EGe]!<)! [EGe]2 [EG]2) | (F3 F!>(! .G/.F/.E/.[DF]/!>)! | %91
 [EG]2-!<(! [EG]>[GB]!<)! [GB]2) | x6 | E>[I:staff +1][G,B,][I:staff -1] G2 F2 | %94
!<(![I:staff +1] [G,B,]>[I:staff -1]E G x/ x/ (E[EG] | %95
 [B,GB]2 [CGc]/)([DGd]/[EGe]/[FBf]/ [Geg]2)!<)! |!f! [^^FAd^^f]3 ([^A,F^A-][DFAd-][FAdf] | %97
 [^A^^f^a]>)([dfd'] [dfd']>)([^^Fdf] [Fdf]).[^Bf^b] | %98
 !>![^A^^f^a]3 .[^A,A]/.[A,A]/!ff! .[A,GA].[^EGA^e] | .[D^^Fd]!p! x x4 | %100
!ff! .E z !arpeggio!!>![EG]2 !arpeggio!!>![EG]2 | %101
 !arpeggio!!>![EG]2 !arpeggio!!>![EG]2 !arpeggio!!>![EG]2 |!ff! [G,B,EG]/!pp! x/ x x4 | x6 | %104
 x2 G2 F2 |[I:staff +1] [G,B,]>[I:staff -1]E G x/ (D/ E[EG] | %106
 [B,GB])(.[CGc]/.[DGd]/ .[EGe].[B,GB] !>![GBg]2 | [FAB]3 .[AB]/.[AB]/ .[AB].[AB] | %108
!<(! [GB]>[EGe]!<)! [EGe]2 [EG]2) | (F3 F!>(! .G/.F/.E/.[DF]/!>)! | %110
 [EG]2-!<(! [EG]>[GB]!<)! [GB]2) | x6 | E>[I:staff +1][G,B,][I:staff -1] G2 F2 | %113
!<(![I:staff +1] [G,B,]>[I:staff -1]E G x/ x/ (E[EG] | %114
 [B,GB]2 [CGc]/)([DGd]/[EGe]/[FBf]/ [Geg]2)!<)! |!f! [^^FAd^^f]3 ([^A,F^A-][DFAd-][FAdf] | %116
 [^A^^f^a]>)([dfd'] [dfd']>)([^^Fdf] [Fdf]).[^Bf^b] | %117
 !>![^A^^f^a]3 .[^A,A]/.[A,A]/!ff! .[A,GA].[^EGA^e] | %118
!<(! .[D^^Fd].[_E_e]/.[Ee]/ !>![_E_e].[Ee]/.[Ee]/ !>![Ee].[Ee]/.[Ee]/!<)! | %119
[K:Ab]!>(! (e2!>)!!>(! B2!>)!!>(! [_Gc])([Gf]/!>)![Ge]/) | %120
!>(! (e/d/)!>)!.d/.c/!>(! (B2!>)!!>(! c2!>)! |!>(! B/A/)!>)!.A/.G/!>(! (F2!>)!!>(! G2!>)! | %122
!>(! P[CE])!>)!([=B,=D]/[CE]/!>(! P[DF])!>)!([CE]/[DF]/!>(! (G2)!>)! | %123
!>(! [=dg]2!>)!!>(! d2!>)!!>(! =e2!>)! |!>(! g/f/)!>)!.f/._e/!>(! (=d2!>)!!>(! =e2!>)! | %125
!>(! g/f/)!>)!.f/._e/!>(! (e/=d/)!>)!.d/.c/!>(! (c/B/)!>)!.B/.A/ | %126
 .[=B,=DG]!>(![CEG]/[=A,CG]/!>)! .[B,DG]!>(![CEG]/[A,CG]/!>)! .[B,DG]!>(! !fermata!=d-!>)! | %127
 (=d/!p!c/=B/=A/ ^G/A/B/c/ ^c/d/g/=e/ | ^c/=d/^f/=e/ d/=c/=E/^F/ PG/F/G/^G/ | %129
 =A/^f/=e/=d/ ^c/f/g/=a/ c'/b/g/c/ | %130
!>(! =d/>!>)!=e/!>(!d/>!>)!_e/!>(! d/>!>)!=e/!>(!d/>!>)!_e/!>(! d/>!>)!=e/!>(!d/>!>)!_e/ | %131
 =d/c/=B/=A/ ^G/A/B/c/ ^c/d/.g/.^f/ | .=f/.=e/._e/.=d/ ^c/=c/=A/B/ PG/^F/G/A/ | %133
 B/b/=a/g/ a/g/f/e/ f/e/B/c/ | !trill(!Tx3/2x/4x/4 !trill(!Tx3/2x/4x/4 !trill(!Tx3/2x/4x/4 | %135
 f/_e/d/c/ =B/c/d/e/ =e/f/b/=a/ | _a/g/_g/f/ =e/_e/d/c/ PB/=A/B/c/ | %137
 d/d'/c'/b/ c'/b/a/_g/ a/g/d/e/ | (6:4:6f/_g/f/=e/f/g/ (6:4:6f/g/f/e/f/g/ (6:4:6f/g/f/e/f/g/ | %139
 f/e/d/c/ =B/c/d/e/ =e/f/.b/.=a/ | .a/.g/._g/.f/ =e/_e/c/d/ PB/=A/B/d/ | %141
 !>!c/B/A/G/ ^F/G/A/B/ =B/!>!c/f/d/ | !>!c/B/A/G/ ^F/G/!>!c/=B/ _B/_A/G/=F/ | %143
 =E/!>!c/B/A/ ^F/G/A/B/ =B/!>!c/f/d/ | !>!c/B/A/G/ ^F/G/!>!c/=B/ _B/A/G/=F/ | %145
 =E/!>!c/B/A/"_-""_-""_-""_-""_-""_smorz." ^F/G/A/B/ =B/!>!c/_e/d/ | %146
 !>!c/B/A/G/ ^F/G/A/B/ =B/!>!c/d/B/ | !>!c/B/A/G/ ^F/G/A/B/ =B/!>!c/e/d/ | %148
"_-""_-""_( smorz. )" !>!c/_B/A/G/ ^F/G/A/B/ =B/!>!c/d/B/ | %149
 !>!c/_B/A/G/"_cresc.""_-""_-""_-" ^F/G/A/B/ A/G/=F/=E/ | %150
 ^D/=E/F/G/!>(! _D/G/!>)!C/G/ =B,/C/D/_E/ | %151
"_( cresc. )""_-""_-""_-""_-""_-""_-" D/C/_B,/A,/[K:bass]!<(! G,>_G, F,>_F, | %152
 E,>E, D,>D, C,B,,!<)! | %153
[K:treble]!ff!!>(! [fd'f']>!>)![ec'e'] [ec'e']){/E} (!trill(!!>!TE{=DE}A) ([cac']/[dbd']/ | %154
!>(! [fd'f']/)z/4([ec'e']/4!>)![ec'e']/[=d=b=d']/ [ec'e']){/E} (!trill(!!>!TE{=DE}A) ([cac']/[_d_b_d']/ | %155
!>(! [fd'f']/[e-c'-e']/{/f'}[ec'e']/!>)![=d=d']/)!>(! ([f_d'f']/[e-c'-e']/{/f'}[ec'e']/!>)![d=b=d']/ [cec'e'])(!arpeggio![eb_g'] | %156
 !arpeggio![e=af']!arpeggio![cefc']!arpeggio![Bfd'])!>(! (3(_g/_G/g/!>)![Ff][Dd]) | %157
!>(! ([_ge'_g']>!>)![fd'f'] [fd'f']){/F} (!trill(!!>!TF{=EF}B) ([dbd']/[ec'e']/ | %158
!>(! [_ge'_g']/)z/4([fd'f']/4!>)![fd'f']/[=ec'=e']/ [fd'f'])!>(!{/F} (!trill(!TF{=EF}!>)!B)!8va(! ([=gd'=g']/[aa']/ | %159
!f!!>(! [c'c'']/[e'g']/[c'c'']/)z/4([bb']/4 [bb']/[c'e']/[bb']/)z/4([aa']/4 [aa']/[be']/[aa']/)z/4([gg']/4!>)! | %160
!p!!<(! [gg']/[b=d']/[gg']/)z/4([ff']/4 [ff']/[gb]/[ff']/)z/4!f!([ee']/4!8va)!!<)!!f!!>(! [d_d']/[fa]/[dd']/)z/4[cc']/4!>)! | %161
!<(! (F2 TGF/G/ TAG/A/!<)! | =A/B/c/d/ .[C_Ac])!>(! ([Af]/>[Ae]/!>)! [Ae]/) (A/a/z/4g/4 | %163
 [Ff]2) (G/Pg/[Ff]/[Gg]/) (A/Pa/[Gg]/[Aa]/) | %164
 ([=Ae=a]/[Bb]/[cgc']/[dd']/ .[c_ac'])!>(! ([faf']/z/4!>)![eae']/4 [eae'])!>(!{/[ee']} ([d=ad']/>[cc']/!>)! | %165
 .[Bb]) ([B_gb]/>[cc']/ [dfd'])([dfd']/>[cc']/ [Bfb])[ABea]/>[_Gg]/ | %166
 [Fdf] x!<(![I:staff +1] (29:4:29=A,,B,,C,D,E,F,G,[I:staff -1]=A,B,CDEFG=ABcdefg=a!8va(!bc'd'e'f'g'=a'!<)! | %167
 .b'{/c''} ([d'g'b']/[c'^f'=a']/ [d'g'b'])[c'g'c''][ac'_a']!8va)![eae'] | %168
!>(! [faf']!>)!!>(![ee']!>)!!>(![cec']!>)!!>(![Aca]!>)!!>(![FAf]!>)!!>(![EGe]!>)! | %169
!f! .[CAc] !trill(!TE!>(! =D!<(!(3(F/!>)!A/_c/ (6:4:6=d/f/a/!8va(!_c'/=d'/=d''/)!<)! | %170
!f! .[e'e'']!8va)! .[Beb]/.[Beb]/ .[Beb]([Be=a]/[Beb]/ [cec'])([Gdeg] | %171
 .[Aca]) !trill(!TE!>(! =D!<(!!<(!(3(F/!>)!A/_c/ (6:4:6=d/f/a/!8va(!_c'/=d'/=d''/)!<)!!<)! | %172
 .[e'e'']!8va)! .[Beb]/.[Beb]/ ([Beb]/[cec']/).[=Ae=a]/.[Beb]/ .[cec']([Gdeg] | %173
!ff!!>(! [Acfa]>e!>)! [Ece]2) z!ff! ([cac']/[dbd']/ | [fd'f']>[ec'e'] [ec'e']2) z ([cac']/[dbd']/ | %175
!>(! [fd'f']>)!>)![ec'e']!>(! ([fd'f']>!>)![ec'e'])!>(! ([fd'f']>!>)![ec'e']) | %176
!>(! ([fd'f']>!>)![ec'e'] [ec'e']2!8va(!!<(! .[ff']/4)z/4([gc'g']/[ac'a']/[be'-b']/!<)! | %177
 [c'e'a'c'']2)!8va)! z .[C=E]/.[CE]/ .[CE].[CE] | %178
!ff!!>(! !arpeggio![C=E]!>)! z!ff!!>(! !arpeggio![CE]!>)! z!ff!!>(! !arpeggio![D_E]!>)! z | %179
 .[A,CA]2 z2 z2 |] %180
V:2
!ped! [E,,,E,,]2!p! z!<(! ([E,=A,]/[F,B,]/!ped-up! [^F,=B,]/[G,C]/[^G,^C]/[=A,=D]/!<)! | %1
 .[B,E]) z .[G,B,] z A,2 | .G, x!p!!<(! (_C/B,/_F,/E,/ C/B,/F,/E,/ | %3
 _C/B,/_F,/E,/ C/B,/F,/E,/ C/B,/F,/E,/)!<)! | %4
!ped! [_F,A,]2!p! x!ped-up!!<(! [=F,B,]/[^F,=B,]/ [G,=C]/[^G,^C]/[=A,=D]/[_B,_E]/!<)! | %5
 x2 .[_F,A,_C] x x2 | x2!p!!<(! (D/_C/_G,/_F,/ D/C/G,/F,/ | %7
 D/_C/_G,/_F,/ D/C/G,/F,/ D/C/G,/F,/)!<)! |!ped! [=F,=A,]2 x4!ped-up! | %9
 x2!ped! [F,=A,] z x2!ped-up! |!ped! [_A,B,] x x4!ped-up! |!ped! x2 [F,B,] x x2!ped-up! | %12
!ped! .[E,,,E,,] z!ped-up! .[B,,,B,,]!<(!.[E,,E,]/.[F,,F,]/ .[G,,G,]/.[A,,A,]/.[B,,B,]/.[C,C]/!<)! | %13
 .[D,D] z .[E,,E,] z!ped! !>![G,G]2 |"^-""^-""^-""^-""^cresc." G/D/B,/E,/ G/D/B,/E,/ G/D/B,/E,/ | %15
 G/D/B,/E,/ D/G,/E,/B,,/ G,/D,/B,,/E,,/!ped-up! | %16
!ped! .[A,,,A,,] ([E,E][A,CA]) .[E,,E,].[A,,A,]!ped-up! ([E,,,E,,] | %17
!ped!.[A,,,A,,]) ([E,E][A,CA]) .[E,,E,].[A,,A,]!ped-up! ([E,,,E,,] | %18
!ped!.[A,,,A,,]) ([E,E][A,CA]) .[E,,E,].[A,,A,]!ped-up!!ped! !arpeggio![E,,B,,_G,]!ped-up! | %19
!ped! !arpeggio![F,,C,E,=A,]!arpeggio![C,F,A,E]!ped!!ped-up!!arpeggio![B,,F,B,D]!ped-up! ([_G,,,_G,,][F,,,F,,]) ([D,,D,] | %20
!ped!.[B,,,B,,]) [F,F][B,DB] .[F,,F,].[B,,B,]!ped-up! ([F,,,F,,] | %21
!ped!.[B,,,B,,]) ([F,F][B,DB]) .[F,,F,].[B,,B,]!ped-up! [B,,,B,,] | %22
!ped! .[E,,,E,,].[DEG]!ped-up!!ped! .[E,,E,].[CE]!ped-up!!ped! .[E,,E,].[B,E]!ped-up! | %23
!ped! x4!ped-up!!ped!!ped-up!!ped! F,2!ped-up! | %24
!ped! !>![D,,D,][F,B,]!ped-up!!ped! !>![C,,C,][=E,B,C]!ped-up!!ped! !>![F,,,F,,][F,A,C]!ped-up! | %25
!ped! .[E,,E,]([E,B,]!ped-up! .[A,,E,A,])[I:staff -1] [=B,=DF]/>[CE]/ [CE][I:staff +1] .[A,,A,] | %26
!ped! !>![D,,D,][F,B,]!ped-up!!ped! !>![C,,C,][B,=E]!ped-up!!ped! !>![F,,,F,,][A,F]!ped-up! | %27
!ped! .[E,,E,][K:treble]([B,DEG]!ped-up! .[A,EA]) [=B,=DA=B]/z/4[CEAc]/4 [CEAc]!ped! !arpeggio![F,E=A]!ped-up! | %28
[K:bass]!ped! x4!ped-up!!ped!!ped-up!!ped!!ped-up!!ped!!ped-up!!ped! x!ped-up!!ped! [A,B,]/>_G,/!ped-up! | %29
!ped! F, x (22:4:22=A,,B,,C,D,E,F,G,=A,B,[I:staff -1]CDEFG=ABcdefg=a | %30
 .B!ped-up!"^cresc.""^-""^-""^-"!ped![I:staff +1] .[E,,,E,,].[E,,E,] [E,E][F,F]!ped-up![C,A,C] | %31
 [D,A,D][F,,F,]!ped![B,,F,B,][B,,,B,,]!ped-up!!ped![E,,E,][E,,,E,,]!ped-up! | %32
!ped! .[A,,,A,,] ([E,E][A,CA])!ped-up!!ped! .[E,,E,].[A,,A,]!ped-up! ([E,,,E,,] | %33
!ped! .[A,,,A,,]) ([E,E][A,CA])!ped-up!!ped! .[E,,E,].[A,,A,]!ped-up! [E,,,E,,] | %34
!ped! .[A,,,A,,] ([E,E][A,CA])!ped-up!!ped! .[E,,E,].[A,,A,]!ped-up!!ped! !arpeggio![E,,B,,_G,]!ped-up! | %35
!ped! !arpeggio![F,,C,E,=A,]!arpeggio![F,CE=A]!ped-up!!ped!!arpeggio![B,,F,D]!ped-up! [_G,,_G,][F,,F,][D,,D,] | %36
!ped! .[B,,,B,,] ([F,DF][B,DB])!ped-up!!ped! .[F,,F,].[B,,B,]!ped-up! [F,,,F,,] | %37
!ped! .[B,,,B,,] ([F,DF][B,DB])!ped-up!!ped! .[F,,F,].[B,,B,]!ped-up! [B,,,B,,] | %38
!ped! x[K:treble] (c/B/)!ped-up!!ped![K:bass] x[K:treble] (B/A/)!ped-up!!ped![K:bass] x[K:treble] (A/G/)!ped-up! | %39
[K:bass]!ped! x[K:treble] (G/F/)!ped-up!!ped![K:bass] x[K:treble] (F/E/)!ped-up!!ped![K:bass] x (_D/C/)!ped-up! | %40
!ped! !>![D,,D,][F,B,]!ped-up!!ped! !>![C,,C,][=E,B,C]!ped-up!!ped! !>![F,,,F,,][F,A,C]!ped-up! | %41
!ped! .[E,,E,]([E,B,]!ped-up! .[A,,E,A,])[I:staff -1] [=B,=DF]/>[CE]/ [CE][I:staff +1] .[A,,A,] | %42
!ped! !>![D,,D,][F,B,]!ped-up!!ped! !>![C,,C,][B,=E]!ped-up!!ped! !>![F,,,F,,][A,F]!ped-up! | %43
!ped! .[E,,,E,,][K:treble]([B,DEG]!ped-up! .[A,EA]) ([=B,=DA=B]/z/4[CEAc]/4 [CEAc])!ped! !arpeggio![F,E=A]!ped-up! | %44
[K:bass]!ped! !arpeggio![B,,F,D]!ped-up!!ped! !arpeggio![E,B,_G]!ped-up!!ped!!arpeggio![B,,F,D]!ped-up!!ped!!arpeggio![E,,B,,!courtesy!_G,]!ped-up!!ped!!arpeggio![B,,,F,,D,]!ped-up!!ped!!arpeggio![E,,B,,G,]!ped-up! | %45
!ped! !arpeggio![B,,F,D]!ped-up! x (29:4:29A,,,B,,,C,,D,,E,,F,,G,,=A,,B,,C,D,E,F,G,=A,B,[I:staff -1]CDEFG=A!8va(!Bcdefg=a | %46
!ped! .b!8va)![I:staff +1] .[E,,,E,,].[E,E][K:treble][EGce]!ped-up![Fcf][CAc] | %47
 x2[K:bass]!ped! G,2!ped-up! A,!ped-up! x | %48
!ped! .[C,,,C,,] [C,,C,]/z/4([C,,C,]/4!ped-up!!ped! [=E,,D,])[=E,,,E,,]/z/4!ped-up!([E,,C,]/4!ped! [F,,_E,])[F,,,F,,]/z/4([F,,D,]/4!ped-up! | %49
!ped! [G,,F,])[G,,,G,,]/z/4([G,,=E,]/4!ped-up!!ped! [A,,G,])[A,,,A,,]/z/4([A,,F,]/4!ped-up!!ped! [A,,A,])[A,,,A,,]/z/4[A,,^F,]/4!ped-up! | %50
!ped! .[G,,G,][I:staff -1] .[G,G]/.[G,G]/!>(! ([G,=A]/!ped-up![G,G]/).[G,G]/!>)!.[G,G]/ .[G,G]!>(! .[=DFG=B]!>)! | %51
.[CGc][I:staff +1] C,/4=E,/4G,/4=B,/4[I:staff -1] C/4=E/4G/4=B/4[I:staff +1][K:treble] c/C/ [Dd][!courtesy!=D=d] | %52
!ped! .[Ee][K:bass] [E,,E,]/z/4([E,,E,]/4!ped-up!!ped! [G,,_F,])[G,,,G,,]/z/4!ped-up!([G,,E,]/4!ped! [A,,_G,])[A,,,A,,]/z/4([A,,F,]/4!ped-up! | %53
!ped! [B,,A,])[B,,,B,,]/z/4([B,,G,]/4!ped-up!!ped! [_C,B,])[_C,,C,]/z/4([C,A,]/4!ped-up!!ped! [C,_C])[C,,C,]/z/4[C,=A,]/4!ped-up! | %54
!ped! .[B,,B,][K:treble] .[B,B]/.[B,B]/!>(! ([B,c]/!ped-up![B,B]/).[B,B]/!>)!.[B,B]/ .[B,B]!ped! (!arpeggio![B,FA=d]!ped-up! | %55
.[Ge])[K:bass] [E,_CE][E,B,E] [E,,_C,E,]!ped![E,,B,,E,] .[E,,,E,,]!ped-up! | %56
!ped! .[D,,,D,,][F,G,]/[F,G,]/ [F,G,][F,G,][F,G,][F,G,]!ped-up! | %57
!ped! C,4!ped-up!!ped! x2!ped-up! |!ped! C,4!ped-up!!ped! B,,2!ped-up! | %59
!ped! [C,,C,][G,B,C]/[G,B,C]/ [G,B,C][G,B,C]!ped!!ped-up! [F,,F,][A,C]!ped-up! | %60
!ped! x/ [D,,D,][G,B,F]/[G,B,F]/ [G,B,F][G,B,F][G,F][G,F]!ped-up! | %61
!ped! [C,,C,][G,=E]/[G,E]/ [G,E][G,E]!ped-up!!ped! [B,,,B,,]!ped-up![F,A,F] | %62
!ped! [C,,C,][G,=E]/[G,E]/ [G,E][G,E]!ped-up!"^-""^-""^-""^-""^cresc."!ped! [B,,,B,,][F,A,F]!ped-up! | %63
!ped! [B,,,B,,][A,B,=DA]!ped!!ped-up! [E,,,E,,][G,B,_DG][I:staff -1][B,DEG][DEG_d]!ped-up! | %64
!ped![I:staff +1] .[A,,,A,,] ([E,E][A,CA])!ped-up!!ped! .[E,,E,].[A,,A,]!ped-up! ([E,,,E,,] | %65
!ped! .[A,,,A,,]) ([E,E][A,CA])!ped-up!!ped! .[E,,E,].[A,,A,]!ped-up! [E,,,E,,] | %66
!ped! .[A,,,A,,] ([E,E][A,CA])!ped-up!!ped! .[E,,E,].[A,,A,]!ped-up!!ped! !arpeggio![E,,B,,_G,]!ped-up! | %67
!ped! !arpeggio![F,,C,E,=A,]!arpeggio![F,CE=A]!ped-up!!ped!!arpeggio![B,,F,D]!ped-up! [_G,,_G,][F,,F,][D,,D,] | %68
!ped! .[B,,,B,,] ([F,DF][B,DB])!ped-up!!ped! .[F,,F,].[B,,B,]!ped-up! [F,,,F,,] | %69
!ped! .[B,,,B,,] ([F,DF][B,DB])!ped-up!!ped! .[F,,F,].[B,,B,]!ped-up! [B,,,B,,] | %70
!ped! x[K:treble] (c/B/)!ped-up!!ped![K:bass] x[K:treble] (B/A/)!ped-up!!ped![K:bass] x[K:treble] (A/G/)!ped-up! | %71
[K:bass]!ped! x[K:treble] (G/F/)!ped-up!!ped![K:bass] x[K:treble] (F/E/)!ped-up!!ped![K:bass] x (_D/C/)!ped-up! | %72
!ped! !>![D,,D,][F,B,]!ped-up!!ped! !>![C,,C,][=E,B,C]!ped-up!!ped! !>![F,,,F,,][F,A,C]!ped-up! | %73
!ped! .[E,,E,]([E,B,]!ped-up! .[A,,E,A,])[I:staff -1] [=B,=DF]/>[CE]/ [CE][I:staff +1] .[A,,A,] | %74
!ped! !>![D,,D,][F,B,]!ped-up!!ped! !>![C,,C,][B,=E]!ped-up!!ped! !>![F,,,F,,][A,F]!ped-up! | %75
!ped! .[E,,,E,,][K:treble]([B,DEG]!ped-up! .[A,EA]) ([=B,=DA=B]/z/4[CEAc]/4 [CEAc])!ped! !arpeggio![F,E=A]!ped-up! | %76
[K:bass]!ped! !arpeggio![B,,F,D]!ped-up!!ped! !arpeggio![E,B,_G]!ped-up!!ped!!arpeggio![B,,F,D]!ped-up!!ped!!arpeggio![E,,B,,_G,]!ped-up!!ped!!arpeggio![B,,,F,,D,]!ped-up!!ped!!arpeggio![E,,B,,G,]!ped-up! | %77
!ped! !arpeggio![B,,F,D]!ped-up! x (29:4:29A,,,B,,,C,,D,,E,,F,,G,,=A,,B,,C,D,E,F,G,=A,B,[I:staff -1]CDEFG=A!8va(!Bcdefg=a | %78
!ped! .b!8va)![I:staff +1] .[E,,,E,,].[E,E][K:treble][EGce]!ped-up![Fcf][CAc] | %79
 x2[K:bass]!ped! G,2!ped-up! A,!ped-up! x ||[K:E]!ped! [G,B,]2 [G,B,]2 [G,B,]2 | %81
 [G,B,]2 [G,B,]2 [G,B,]2!ped-up! | %82
!ped! x/!ped-up! .D,/.C,/.B,,/ .E,/.D,/.C,/.B,,/ .E,/.D,/.C,/.B,,/ | %83
 .E,/.D,/.C,/.B,,/ .E,/.D,/.C,/.B,,/ .E,/.D,/.C,/.B,,/ | %84
"^sotto voce""_stacc." [G,B,]4 [A,B,]>[A,B,] | [G,B,]>[G,E] [G,B,]2 [A,B,]2 | %86
 x3/2 G,/ [G,B,] x/ A,/ G,G, | %87
 .[E,,E,]/.[D,,D,]/.[C,,C,]/.[B,,,B,,]/ .[E,,E,]/.[D,,D,]/.[C,,C,]/.[B,,,B,,]/ .[E,,E,]/.[D,,D,]/.[C,,C,]/.[B,,,B,,]/ | %88
 B,3 .B,/.B,/ .B,.B, | B,3/2 x/ x2 B,2 | %90
 [A,B,].[A,B,]/.[A,B,]/ .[A,B,] [A,B,] .[A,B,]/.[A,B,]/.[A,B,]/.[A,B,]/ | G,>(C B,4) | %92
"^-""^a""^poco""^-" [G,B,]3 .[^^F,B,]/.[G,B,]/ [A,B,].[A,C]/.[A,D]/ | %93
"^poco""^-""^-" G,3/2 x/ [G,B,]2 [A,B,]2 | %94
"^cresc.""^-""^-""^-""^-" x3/2 G,/ [G,B,] z/ [B,D]/ G,G, | %95
 .[E,,E,]/.[D,,D,]/.[C,,C,]/.[B,,,B,,]/ .[E,,E,]/.[D,,D,]/.[C,,C,]/.[B,,,B,,]/ .[E,,E,]/.[D,,D,]/.[E,,E,]/.[^^C,,^^C,]/ | %96
 .[D,,D,]/.[^^C,,^^C,]/.[^B,,,^B,,]/.[^A,,,^A,,]/"^cresc.""^-""^-""^-""^-""^-" .[D,,D,]/.[C,,C,]/.[B,,,B,,]/.[A,,,A,,]/ .[D,,D,]/.[C,,C,]/.[B,,,B,,]/.[A,,,A,,]/ | %97
 .[D,,D,]/.[^^C,,^^C,]/.[^B,,,^B,,]/.[^A,,,^A,,]/ .[D,,D,]/.[C,,C,]/.[B,,,B,,]/.[A,,,A,,]/ .[D,,D,]/.[C,,C,]/.[B,,,B,,]/.[A,,,A,,]/ | %98
 .[D,,D,]/.[^^C,,^^C,]/.[^B,,,^B,,]/.[^A,,,^A,,]/ .[D,,D,]/.[C,,C,]/.[B,,,B,,]/.[A,,,A,,]/ .[D,,D,]/.[C,,C,]/.[B,,,B,,]/.[A,,,A,,]/ | %99
 x!ped!!<(! !arpeggio![D,A,B,D]!arpeggio![D,A,B,D]!arpeggio![D,A,B,D]!arpeggio![D,A,B,D]!arpeggio![D,A,B,D]!ped-up!!<)! | %100
!ped! [G,B,] z [G,B,]2 [G,B,]2 | [G,B,]2 [G,B,]2 [G,B,]2 | %102
!ped! x/!ped-up! .D,/.C,/.B,,/ .E,/.D,/.C,/.B,,/ .E,/.D,/.C,/.B,,/ | %103
"_stacc." [G,B,]4 [A,B,]>[A,B,] | [G,B,]>[G,E] [G,B,]2 [A,B,]2 | x3/2 G,/ [G,B,] x/ A,/ G,G, | %106
 .[E,,E,]/.[D,,D,]/.[C,,C,]/.[B,,,B,,]/ .[E,,E,]/.[D,,D,]/.[C,,C,]/.[B,,,B,,]/ .[E,,E,]/.[D,,D,]/.[C,,C,]/.[B,,,B,,]/ | %107
 B,3 .B,/.B,/ .B,.B, | B,3/2 x/ x2 B,2 | %109
 [A,B,].[A,B,]/.[A,B,]/ .[A,B,] [A,B,] .[A,B,]/.[A,B,]/.[A,B,]/.[A,B,]/ | G,>(C B,4) | %111
"^-""^a""^poco""^-" [G,B,]3 .[^^F,B,]/.[G,B,]/ [A,B,].[A,C]/.[A,D]/ | %112
"^poco""^-""^-" G,3/2 x/ [G,B,]2 [A,B,]2 | %113
"^cresc.""^-""^-""^-""^-" x3/2 G,/ [G,B,] z/ [B,D]/ G,G, | %114
 .[E,,E,]/.[D,,D,]/.[C,,C,]/.[B,,,B,,]/ .[E,,E,]/.[D,,D,]/.[C,,C,]/.[B,,,B,,]/ .[E,,E,]/.[D,,D,]/.[E,,E,]/.[^^C,,^^C,]/ | %115
 .[D,,D,]/.[^^C,,^^C,]/.[^B,,,^B,,]/.[^A,,,^A,,]/"^cresc.""^-""^-""^-""^-""^-" .[D,,D,]/.[C,,C,]/.[B,,,B,,]/.[A,,,A,,]/ .[D,,D,]/.[C,,C,]/.[B,,,B,,]/.[A,,,A,,]/ | %116
 .[D,,D,]/.[^^C,,^^C,]/.[^B,,,^B,,]/.[^A,,,^A,,]/ .[D,,D,]/.[C,,C,]/.[B,,,B,,]/.[A,,,A,,]/ .[D,,D,]/.[C,,C,]/.[B,,,B,,]/.[A,,,A,,]/ | %117
 .[D,,D,]/.[^^C,,^^C,]/.[^B,,,^B,,]/.[^A,,,^A,,]/ .[D,,D,]/.[C,,C,]/.[B,,,B,,]/.[A,,,A,,]/ .[D,,D,]/.[C,,C,]/.[B,,,B,,]/.[A,,,A,,]/ | %118
!ped! .[D,,D,]!ped-up!.[_E,,_E,]/.[E,,E,]/!ped-up!!ped! !>![=E,,=E,].[E,,E,]/.[E,,E,]/!ped-up!!ped! !>![=F,,=F,].[F,,F,]/.[F,,F,]/ | %119
[K:Ab]!ped! [_G,,_G,][G,D]/[G,D]/ [G,D][G,D]/[G,D]/!ped-up!!ped! [A,,E,A,][E,A,C]/[E,A,C]/!ped-up! | %120
 [D,A,C][D,A,D]/[D,A,D]/!ped! [D,A,D][D,A,D]/[D,A,D]/!ped-up!!ped! [C,G,B,][C,G,B,]/[C,G,B,]/!ped-up! | %121
 [F,A,][F,A,]/[E,A,]/!ped! [=D,A,][D,A,]/[D,A,]/!ped-up!!ped! [G,,D,G,][G,,D,G,]/[G,,D,G,]/!ped-up! | %122
!ped! [C,G,][C,G,]/[C,G,]/!ped-up!!ped! [B,,A,][B,,A,]/[B,,A,]/!ped-up!!ped! [E,,B,,E,][E,,B,,E,]/[E,,B,,E,]/!ped-up! | %123
!ped! [=B,,,=B,,][B,,G,=B,]/[B,,G,B,]/ [B,,G,B,][B,,G,B,]/[B,,G,B,]/!ped-up!!ped! [C,G,C][C,G,C]/[C,G,C]/!ped-up! | %124
 [F,C=E][F,CF]/[F,CF]/!ped! [F,C=D][F,CD]/[F,CD]/!ped-up!!ped! [G,C=E][G,CE]/[G,CE]/!ped-up! | %125
 [A,=E][A,F]/[A,F]/!ped! [F,F][F,C]/[F,C]/!ped-up!!ped! [=D,A,C][D,G,C]/[D,F,C]/!ped-up! | %126
!ped! .[G,,=D,G,]!>(![G,,C,G,]/!ped-up![G,,E,G,]/!>)! .[G,,D,G,]!>(![G,,C,G,]/[G,,E,G,]/!>)! .[G,,D,G,]!ped! =D-!ped-up! | %127
 =D (D[^F,C][=D,D][G,=B,][D,D] |!ped! .=D,, =D[=A,C][=D,D]!ped-up![G,=B,][D,D] | %129
 [^F,=A,][=D,=D]!ped![G,_B,] [D,D]2!ped-up! [D,D] | [^F,=A,][=D,=D][G,_B,][D,D][^G,=B,][D,D] | %131
!ped! [=A,C] [=D,=D]2 [D,D] [G,B,][D,D]!ped-up! | %132
!ped! .=D,, [=D,=D][^F,C][D,D]!ped-up![G,B,][D,D] | %133
!ped! [G,B,]!>(! [=D,E]2!>)! [D,E]!ped-up![G,B,][D,E] | %134
!ped! [^F,=A,=D]=D,!ped-up!!ped! [G,B,E]_D,!ped-up!!ped! [G,B,=E]C,!ped-up! | %135
!ped! .F,, [F,F]2 [F,F] [B,D][F,F]!ped-up! |!ped! .F,,, [F,F][=A,E]!ped![F,F]!ped-up![B,D][F,F] | %137
!ped! [B,D]!>(! [F,_G]2!>)! [F,G]!ped-up![B,D][F,G] | [=A,C][F,F][B,D][F,F][=B,=D][F,F] | %139
!ped! [CE] [F,F]2 [F,F] [B,D][F,F]!ped-up! |!ped! .F,,, [F,F][=A,E]!ped![F,F]!ped-up![B,D][F,F] | %141
!ped! .F,, [C,C]2 [C,C]!ped-up![F,A,][C,C] |!ped! .E,, [C,C]2 [C,C]!ped-up!!ped! .D,,[C,C] | %143
!ped! .C,, [C,C]2 [C,C]!ped-up!!ped![F,A,][C,C]!ped-up! | %144
!ped! .E,, [C,C]2!ped-up! [C,C]!ped! .D,,[C,C]!ped-up! | %145
!ped! .C,, [C,C]2 [C,C][F,A,][C,C]!ped-up! | %146
!ped! [E,G,] [C,C]2 [C,C]!ped-up!!ped![D,F,]!ped-up![C,C] | %147
!ped! =E, [C,C]2 [C,C]!ped-up!!ped![F,A,][C,C]!ped-up! | %148
!ped! [E,G,] [C,C]2 [C,C]!ped-up!!ped![D,F,][C,C]-!ped-up! | %149
 [C,=E,C]) z ^F,/G,/A,/B,/ A,/G,/=F,/E,/ | x2 _D,C, x2 | x2 G,,>_G,, F,,>_F,, | %152
 E,,>E,, D,,>D,, C,,B,,, | %153
!ped! .[A,,,A,,]!ped-up! ([E,E][A,CA])!ped-up!!ped! .[E,,E,].[A,,A,] ([E,,,E,,] | %154
!ped! .[A,,,A,,]) ([E,E][A,CA])!ped-up!!ped! .[E,,E,].[A,,A,]!ped-up! [E,,,E,,] | %155
!ped! .[A,,,A,,] ([E,E][A,CA])!ped-up!!ped! .[E,,E,].[A,,A,]!ped-up!!ped! !arpeggio![E,,B,,_G,] | %156
!ped! !arpeggio![F,,C,E,=A,]!arpeggio![F,CE=A]!ped-up!!ped!!arpeggio![B,,F,D] [_G,,_G,][F,,F,][D,,D,]!ped-up! | %157
!ped! .[B,,,B,,] ([F,DF][B,DB])!ped-up!!ped! .[F,,F,].[B,,B,] [F,,,F,,] | %158
!ped! .[B,,,B,,] ([F,DF][B,DB])!ped-up!!ped! .[F,,F,].[B,,B,]!ped-up! [B,,,B,,] | %159
!ped! x[K:treble] (c/B/)!ped-up!!ped![K:bass] x[K:treble] (B/A/)!ped-up!!ped![K:bass] x!ped-up![K:treble] (A/G/) | %160
[K:bass]!ped! x[K:treble] (G/F/)!ped-up!!ped![K:bass] x[K:treble] (F/E/)!ped-up!!ped![K:bass] x (_D/C/)!ped-up! | %161
!ped! !>![D,,D,][F,B,]!ped-up!!ped! !>![C,,C,][=E,B,C]!ped-up!!ped! !>![F,,,F,,][F,A,C]!ped-up! | %162
!ped! .[E,,E,]([E,B,] .[A,,E,A,])[I:staff -1] [=B,=DF]/>[CE]/ [CE][I:staff +1] .[A,,A,]!ped-up! | %163
!ped! !>![D,,D,][F,B,]!ped-up!!ped! !>![C,,C,][B,=E]!ped-up!!ped! !>![F,,,F,,][A,F] | %164
!ped! .[E,,,E,,][K:treble]([B,DEG] .[A,EA])!ped-up! ([=B,=DA=B]/z/4[CEAc]/4 [CEAc])!ped! !arpeggio![F,E=A]!ped-up! | %165
[K:bass]!ped! !arpeggio![B,,F,D]!ped-up!!ped! !arpeggio![E,B,_G]!ped-up!!ped!!arpeggio![B,,F,D]!ped-up!!ped!!arpeggio![E,,B,,_G,]!ped-up!!ped!!arpeggio![B,,,F,,D,]!ped-up!!ped!!arpeggio![E,,B,,G,]!ped-up! | %166
!ped! !arpeggio![B,,F,D] x (29:4:29A,,,B,,,C,,D,,E,,F,,G,,=A,,B,,C,D,E,F,G,=A,B,[I:staff -1]CDEFG=A!8va(!Bcdefg=a |!ped-up! %167
!ped! .b!ped-up!!8va)![I:staff +1] .[E,,,E,,].[E,E][K:treble][EGce][Fcf][CAc] | %168
 [DAd][CAc][A,EA][K:bass][F,F][D,A,D][E,B,D] | %169
!ped!"^sempre  " .[A,,,A,,] ([E,A,C]!ped-up!!ped![F,A,=B,] .[F,,F,])!ped-up!.[F,,,F,,]([_F,,,_F,,] | %170
!ped! .[E,,,E,,])[K:treble] .[B,DEG]/.[B,DEG]/ .[B,DEG]([B,DE^F]/[B,DEG]/ [B,DE_A])!ped-up!([B,DEB] | %171
[K:bass]!ped! .[A,,A,]) (([E,A,C]!ped-up!!ped![F,A,=B,]!ped-up! .[F,,F,])).[F,,,F,,]([_F,,,_F,,] | %172
!ped! .[E,,,E,,])[K:treble] .[B,DEG]/.[B,DEG]/ [B,DEG]/[B,DEA]/.[B,DE^F]/.[B,DEG]/ .[B,DE_A]!ped-up![B,DEB] | %173
[K:bass]!ped! .[A,,,A,,].[E,,E,] .[A,,A,]!ped-up!.[E,E][K:treble] .[A,A].[Ee] | %174
[K:bass]!ped! .[A,,,A,,].[E,,E,] .[A,,A,].[E,E] .[A,A].[E,E]!ped-up! | %175
!ped! .[A,,,A,,].[E,,E,] .[A,,A,].[E,E] .[A,A].[E,E]!ped-up! | %176
 .[A,,A,].[E,,E,]!>(! .[A,,,A,,]/!>)!.[G,,,G,,]/.[F,,,F,,]/.[E,,,E,,]/ .[A,,,A,,]/.[G,,,G,,]/.[F,,,F,,]/.[E,,,E,,]/ | %177
 .[A,,,A,,]2 x!ped-up!!ped! .[=E,G,]/.[E,G,]/ .[E,G,].[E,G,] | %178
 [=E,G,] z!ped-up!!ped! [E,G,] z!ped-up!!ped! [_E,G,] z |!ped! .[A,,,A,,]2 z2"_Fine" z2!ped-up! |] %180
V:3
 x3 ^C,/=D,/ ^D,/=E,/^E,/^F,/ | .G, z .[E,,B,,] z [=D,_C]2 | %2
 .[E,B,] z A,,/G,,/=D,,/E,,/ A,,/G,,/D,,/E,,/ | %3
 A,,/G,,/=D,,/E,,/ A,,/G,,/D,,/E,,/ A,,/G,,/D,,/E,,/ | [E,,A,,E,]2 z =D,/^D,/ =E,/^E,/^F,/=G,/ | %5
 .A, z .[E,,_C,] z [G,B,_F]2 | .[A,_C_F] z B,,/A,,/E,,/A,,/ B,,/A,,/E,,/A,,/ | %7
 B,,/A,,/E,,/A,,/ B,,/A,,/E,,/A,,/ B,,/A,,/E,,/A,,/ | [E,,=A,,E,]2 z ^F,/G,/ ^G,/=A,/_B,/=B,/ | %9
 .C z .[E,,E,] z [E,=A,E]2 | .[E,,,E,,] z z ^G,/=A,/ ^A,/=B,/^B,/^C/ | %11
 .=D z .[E,,E,] z [A,B,=DA]2 | x6 | x6 | x6 | x6 | x6 | x6 | x6 | x6 | x6 | x6 | x6 | %23
 .[B,,,B,,].[A,B,=D] .[E,,E,].[G,B,] [F,,F,]A, | x6 | x6 | x6 | x[K:treble] x5 | %28
[K:bass] !arpeggio![B,,F,D] !arpeggio![E,,B,,_G,]!arpeggio![B,,,F,,D,]!arpeggio![E,,,E,,]!arpeggio![B,,,F,,D,]!arpeggio![E,,B,,E,] | %29
 !arpeggio![B,,,F,,D,] x (22:4:22=A,,,B,,,C,,D,,E,,F,,G,,=A,,B,,C,D,E,F,G,=A,B,CDEFG=A | x6 | x6 | %32
 x6 | x6 | x6 | x6 | x6 | x6 | %38
 .[E,,,E,,][K:treble][CEG][K:bass] .E,[K:treble]E[K:bass] .E,[K:treble][B,E] | %39
[K:bass] .B,,[K:treble][B,=D][K:bass] .E,[K:treble][G,B,][K:bass] [F,,F,]A, | x6 | x6 | x6 | %43
 x[K:treble] x5 |[K:bass] x6 | x201/40!8va(! x31/32 | x!8va)! x2[K:treble] x3 | %47
 .[DAd][K:bass] [E,,E,]2 .[E,,,E,,].[A,,,A,,] z | x6 | x6 | x6 | x3[K:treble] x3 | x[K:bass] x5 | %53
 x6 | x[K:treble] x5 | x[K:bass] x5 | x6 | C,,[=E,G,]/[E,G,]/ [E,G,][E,G,] [B,,,B,,][F,G,] | %58
 C,,[=E,G,]/[E,G,]/ [E,G,][E,G,] [B,,,B,,][F,G,] | x6 | x13/2 | x6 | x6 | x6 | x6 | x6 | x6 | x6 | %68
 x6 | x6 | .[E,,,E,,][K:treble][CEG][K:bass] .E,[K:treble]E[K:bass] .E,[K:treble][B,E] | %71
[K:bass] .B,,[K:treble][B,=D][K:bass] .E,[K:treble][G,B,][K:bass] [F,,F,]A, | x6 | x6 | x6 | %75
 x[K:treble] x5 |[K:bass] x6 | x201/40!8va(! x31/32 | x!8va)! x2[K:treble] x3 | %79
 .[DAd][K:bass] [E,,E,]2 .[E,,,E,,].[A,,,A,,] z ||[K:E] [E,,B,,E,]2 [E,,B,,E,]2 [E,,B,,E,]2 | %81
 [E,,B,,E,]2 [E,,B,,E,]2 [E,,B,,E,]2 | %82
 [E,,E,]/ .D,,/.C,,/.B,,,/ .E,,/.D,,/.C,,/.B,,,/ .E,,/.D,,/.C,,/.B,,,/ | %83
 .E,,/.D,,/.C,,/.B,,,/ .E,,/.D,,/.C,,/.B,,,/ .E,,/.D,,/.C,,/.B,,,/ | %84
 .[E,,E,]/.[D,,D,]/.[C,,C,]/.[B,,,B,,]/ .[E,,E,]/.[D,,D,]/.[C,,C,]/.[B,,,B,,]/ .[E,,E,]/.[D,,D,]/.[C,,C,]/.[B,,,B,,]/ | %85
 .[E,,E,]/.[D,,D,]/.[C,,C,]/.[B,,,B,,]/ .[E,,E,]/.[D,,D,]/.[C,,C,]/.[B,,,B,,]/ .[E,,E,]/.[D,,D,]/.[C,,C,]/.[B,,,B,,]/ | %86
 .[E,,E,]/.[D,,D,]/.[C,,C,]/.[B,,,B,,]/ .[E,,E,]/.[D,,D,]/.[C,,C,]/.[B,,,B,,]/ .[E,,E,]/.[D,,D,]/.[C,,C,]/.[B,,,B,,]/ | %87
 x6 | %88
 .[E,,E,]/.[D,,D,]/.[C,,C,]/.[B,,,B,,]/ .[E,,E,]/.[D,,D,]/.[C,,C,]/.[B,,,B,,]/ .[E,,E,]/.[D,,D,]/.[C,,C,]/.[B,,,B,,]/ | %89
 .[E,,E,]/.[D,,D,]/.[C,,C,]/.[B,,,B,,]/ .[E,,E,]/.[D,,D,]/.[C,,C,]/.[B,,,B,,]/ .[E,,E,]/.[D,,D,]/.[C,,C,]/.[B,,,B,,]/ | %90
 .[E,,E,]/.[D,,D,]/.[C,,C,]/.[B,,,B,,]/ .[E,,E,]/.[D,,D,]/.[C,,C,]/.[B,,,B,,]/ .[E,,E,]/.[D,,D,]/.[C,,C,]/.[B,,,B,,]/ | %91
 .[E,,E,]/.[D,,D,]/.[C,,C,]/.[B,,,B,,]/ .[E,,E,]/.[D,,D,]/.[C,,C,]/.[B,,,B,,]/ .[E,,E,]/.[D,,D,]/.[C,,C,]/.[B,,,B,,]/ | %92
 .[E,,E,]/.[D,,D,]/.[C,,C,]/.[B,,,B,,]/ .[E,,E,]/.[D,,D,]/.[C,,C,]/.[B,,,B,,]/ .[E,,E,]/.[D,,D,]/.[C,,C,]/.[B,,,B,,]/ | %93
 .[E,,E,]/.[D,,D,]/.[C,,C,]/.[B,,,B,,]/ .[E,,E,]/.[D,,D,]/.[C,,C,]/.[B,,,B,,]/ .[E,,E,]/.[D,,D,]/.[C,,C,]/.[B,,,B,,]/ | %94
 .[E,,E,]/.[D,,D,]/.[C,,C,]/.[B,,,B,,]/ .[E,,E,]/.[D,,D,]/.[C,,C,]/.[B,,,B,,]/ .[E,,E,]/.[D,,D,]/.[C,,C,]/.[B,,,B,,]/ | %95
 x6 | x6 | x6 | x6 | %99
 .[D,,D,] !arpeggio![B,,,F,,B,,]!arpeggio![B,,,F,,B,,]!arpeggio![B,,,F,,B,,]!arpeggio![B,,,F,,B,,]!arpeggio![B,,,F,,B,,] | %100
 .[E,,,E,,] x [E,,B,,E,]2 [E,,B,,E,]2 | [E,,B,,E,]2 [E,,B,,E,]2 [E,,B,,E,]2 | %102
 [E,,E,]/ .D,,/.C,,/.B,,,/ .E,,/.D,,/.C,,/.B,,,/ .E,,/.D,,/.C,,/.B,,,/ | %103
 .[E,,E,]/.[D,,D,]/.[C,,C,]/.[B,,,B,,]/ .[E,,E,]/.[D,,D,]/.[C,,C,]/.[B,,,B,,]/ .[E,,E,]/.[D,,D,]/.[C,,C,]/.[B,,,B,,]/ | %104
 .[E,,E,]/.[D,,D,]/.[C,,C,]/.[B,,,B,,]/ .[E,,E,]/.[D,,D,]/.[C,,C,]/.[B,,,B,,]/ .[E,,E,]/.[D,,D,]/.[C,,C,]/.[B,,,B,,]/ | %105
 .[E,,E,]/.[D,,D,]/.[C,,C,]/.[B,,,B,,]/ .[E,,E,]/.[D,,D,]/.[C,,C,]/.[B,,,B,,]/ .[E,,E,]/.[D,,D,]/.[C,,C,]/.[B,,,B,,]/ | %106
 x6 | %107
 .[E,,E,]/.[D,,D,]/.[C,,C,]/.[B,,,B,,]/ .[E,,E,]/.[D,,D,]/.[C,,C,]/.[B,,,B,,]/ .[E,,E,]/.[D,,D,]/.[C,,C,]/.[B,,,B,,]/ | %108
 .[E,,E,]/.[D,,D,]/.[C,,C,]/.[B,,,B,,]/ .[E,,E,]/.[D,,D,]/.[C,,C,]/.[B,,,B,,]/ .[E,,E,]/.[D,,D,]/.[C,,C,]/.[B,,,B,,]/ | %109
 .[E,,E,]/.[D,,D,]/.[C,,C,]/.[B,,,B,,]/ .[E,,E,]/.[D,,D,]/.[C,,C,]/.[B,,,B,,]/ .[E,,E,]/.[D,,D,]/.[C,,C,]/.[B,,,B,,]/ | %110
 .[E,,E,]/.[D,,D,]/.[C,,C,]/.[B,,,B,,]/ .[E,,E,]/.[D,,D,]/.[C,,C,]/.[B,,,B,,]/ .[E,,E,]/.[D,,D,]/.[C,,C,]/.[B,,,B,,]/ | %111
 .[E,,E,]/.[D,,D,]/.[C,,C,]/.[B,,,B,,]/ .[E,,E,]/.[D,,D,]/.[C,,C,]/.[B,,,B,,]/ .[E,,E,]/.[D,,D,]/.[C,,C,]/.[B,,,B,,]/ | %112
 .[E,,E,]/.[D,,D,]/.[C,,C,]/.[B,,,B,,]/ .[E,,E,]/.[D,,D,]/.[C,,C,]/.[B,,,B,,]/ .[E,,E,]/.[D,,D,]/.[C,,C,]/.[B,,,B,,]/ | %113
 .[E,,E,]/.[D,,D,]/.[C,,C,]/.[B,,,B,,]/ .[E,,E,]/.[D,,D,]/.[C,,C,]/.[B,,,B,,]/ .[E,,E,]/.[D,,D,]/.[C,,C,]/.[B,,,B,,]/ | %114
 x6 | x6 | x6 | x6 | x6 |[K:Ab] x6 | x6 | x6 | x6 | x6 | x6 | x6 | x6 | x6 | x6 | x6 | x6 | x6 | %132
 x6 | x6 | x6 | x6 | x6 | x6 | x6 | x6 | x6 | x6 | x6 | x6 | x6 | x6 | x6 | x6 | x6 | x6 | %150
 ^D,/=E,/F,/G,/ _D,/G,/C,/G,/ =B,,/C,/D,/_E,/ | D,/C,/B,,/A,,/ G,,/C,/B,,/_G,,/ F,,/C,/B,,/_F,,/ | %152
 E,,/A,,/G,,/E,,/ D,,/G,,/F,,/D,,/ C,,/E,,/B,,,/E,,/ | x6 | x6 | x6 | x6 | x6 | x6 | %159
 .[E,,,E,,][K:treble][CEG][K:bass] .E,[K:treble]E[K:bass] .E,[K:treble][B,E] | %160
[K:bass] .B,,[K:treble][B,=D][K:bass] .E,[K:treble][G,B,][K:bass] [F,,F,]A, | x6 | x6 | x6 | %164
 x[K:treble] x5 |[K:bass] x6 | x201/40!8va(! x31/32 | x!8va)! x2[K:treble] x3 | x3[K:bass] x3 | %169
 x6 | x[K:treble] x5 |[K:bass] x6 | x[K:treble] x5 |[K:bass] x4[K:treble] x2 |[K:bass] x6 | x6 | %176
 x6 | x2 z [C,,G,,C,]/[C,,G,,C,]/ [C,,G,,C,][C,,G,,C,] | [C,,G,,C,]2 [C,,G,,C,]2 [E,,B,,]2 | x6 |] %180
V:4
 x6 | x6 | x6 | x6 | x6 | x6 | x6 | x6 | x6 | x6 | x6 | x6 | x6 | x6 | x6 | x6 | x6 | d/c=B/ x4 | %18
 d/c=B/ _d/cB/ x2 | x6 | x6 | e/dc/ x4 | x6 | x6 | x6 | [DG][DG] x5/2 Az/4G/4 | x6 | x6 | x6 | %29
 x91/15 | x6 | x6 | x6 | x6 | x6 | x6 | x6 | x5!8va(! x | x6 | x4!8va)! x2 | x6 | %41
 [DG][DG] x5/2 Az/4G/4 | x6 | x6 | x6 | x201/40!8va(! x31/32 | x5!8va)! x | x6 | x6 | x6 | x6 | %51
 x3!8va(! x3 | x!8va)! x5 | x6 | x!8va(! x5 | x!8va)! [Ag][Ge] [A,G][G,E] x | x6 | x6 | x6 | x6 | %60
 x13/2 | x6 | x6 | =d2{^cd} e4{=defgabc'_d'e'} | x6 | x6 | x6 | x6 | x6 | x5!8va(! x | x6 | %71
 x4!8va)! x2 | x6 | [DG][DG] x5/2 Az/4G/4 | x6 | x6 | x6 | x201/40!8va(! x31/32 | x5!8va)! x | %79
 x6 ||[K:E] x6 | x6 | x6 | x6 | x6 | x6 | x6 | x6 | x6 | x6 | x6 | x6 | x6 | x6 | x6 | x4 B>^A- | %96
 x6 | x6 | x6 | x6 | x6 | x6 | x6 | x6 | x6 | x6 | x6 | x6 | x6 | x6 | x6 | x6 | x6 | x6 | %114
 x4 B>^A- | x6 | x6 | x6 | x6 |[K:Ab] E.E/.E/ E.E/.E/ x2 | FF/F/ FF/F/ [C=E][CE]/[CE]/ | %121
 [CF]C/C/ C[C=D]/[CD]/ [=B,D][B,D]/[B,D]/ | x4 [G,E][G,E]/[G,E]/ | %123
 [FG][FG]/[FG]/ [FG][FG]/[FG]/ [=E_Bc][EBc]/[EBc]/ | %124
 [Ac][Ac]/[Ac]/ [FAc][FAc]/[FAc]/ [Bc][Bc]/[Bc]/ | [Ac][Ac]/[Ac]/ A[FA]/[FA]/ F[=DF]/[DF]/ | x6 | %127
 x6 | x6 | x6 | x6 | x6 | x6 | x6 | =d2{^cd} e2{de} =e2{^de} | x6 | x6 | x6 | x6 | x6 | x6 | x6 | %142
 x6 | x6 | x6 | x6 | x6 | x6 | x6 | x6 | x2 DC x2 | x2[K:bass] G,/C/B,/_G,/ F,/C/B,/_F,/ | %152
 E,/A,/G,/E,/ D,/G,/F,/D,/ C,/E,/B,,/E,/ |[K:treble] x6 | x6 | x6 | x6 | x6 | x5!8va(! x | x6 | %160
 x4!8va)! x2 | x6 | [DG][DG] x5/2 Az/4G/4 | x6 | x6 | x6 | x201/40!8va(! x31/32 | x5!8va)! x | x6 | %169
 x5!8va(! x | x!8va)! x5 | x5!8va(! x | x!8va)! x5 | x6 | x6 | x6 | x4!8va(! x2 | x2!8va)! x4 | %178
 x6 | x6 |] %180
V:5
 x6 | x6 | x6 | x6 | x6 | x6 | x6 | x6 | x6 | x6 | x6 | x6 | x6 | x6 | x6 | x6 | x6 | x6 | x6 | %19
 x6 | x6 | x6 | x6 | x6 | x6 | x6 | x6 | x[K:treble] x5 |[K:bass] x6 | x91/15 | x6 | x6 | x6 | x6 | %34
 x6 | x6 | x6 | x6 | x[K:treble] x[K:bass] x[K:treble] x[K:bass] x[K:treble] x | %39
[K:bass] x[K:treble] x[K:bass] x[K:treble] x[K:bass] F,2 | x6 | x6 | x6 | x[K:treble] x5 | %44
[K:bass] x6 | x201/40!8va(! x31/32 | x!8va)! x2[K:treble] x3 | x[K:bass] x5 | x6 | x6 | x6 | %51
 x3[K:treble] x3 | x[K:bass] x5 | x6 | x[K:treble] x5 | x[K:bass] x5 | x6 | x6 | x6 | x6 | x13/2 | %61
 x6 | x6 | x6 | x6 | x6 | x6 | x6 | x6 | x6 | %70
 x[K:treble] x[K:bass] x[K:treble] x[K:bass] x[K:treble] x | %71
[K:bass] x[K:treble] x[K:bass] x[K:treble] x[K:bass] F,2 | x6 | x6 | x6 | x[K:treble] x5 | %76
[K:bass] x6 | x201/40!8va(! x31/32 | x!8va)! x2[K:treble] x3 | x[K:bass] x5 ||[K:E] x6 | x6 | x6 | %83
 x6 | x6 | x6 | x6 | x6 | x6 | x6 | x6 | x6 | x6 | x6 | x6 | x6 | x6 | x6 | x6 | x6 | x6 | x6 | %102
 x6 | x6 | x6 | x6 | x6 | x6 | x6 | x6 | x6 | x6 | x6 | x6 | x6 | x6 | x6 | x6 | x6 |[K:Ab] x6 | %120
 x6 | x6 | x6 | x6 | x6 | x6 | x6 | x6 | x6 | x6 | x6 | x6 | x6 | x6 | x6 | x6 | x6 | x6 | x6 | %139
 x6 | x6 | x6 | x6 | x6 | x6 | x6 | x6 | x6 | x6 | x6 | x6 | x6 | x6 | x6 | x6 | x6 | x6 | x6 | %158
 x6 | x[K:treble] x[K:bass] x[K:treble] x[K:bass] x[K:treble] x | %160
[K:bass] x[K:treble] x[K:bass] x[K:treble] x[K:bass] F,2 | x6 | x6 | x6 | x[K:treble] x5 | %165
[K:bass] x6 | x201/40!8va(! x31/32 | x!8va)! x2[K:treble] x3 | x3[K:bass] x3 | x6 | %170
 x[K:treble] x5 |[K:bass] x6 | x[K:treble] x5 |[K:bass] x4[K:treble] x2 |[K:bass] x6 | x6 | x6 | %177
 x6 | x6 | x6 |] %180

